!!!OTL: Martinsgans
!!!ARE: Europa, Mitteleuropa, Deutschland
!!!SCT: A0353
!!!YEM: Copyright 1995, estate of Helmut Schaffrath.
**kern
*ICvox
*Ivox
!! Mixed meters:  4/1; 4/2; 3/1
*M4/2
*k[b-]
*F:
{0f
1a
1b-
=1
1cc
1cc
1dd
1dd
=2
[0cc
0cc]}
=3
{1cc
2cc
1cc
4b-
4a
1g
=4
0f
1cc
1cc
=5
0dd
0cc}
=6
{2f
2f
2a
2b-
=7
1cc
1cc
=8
2cc
2cc
1dd
=9
1cc
2r}
{2cc
=10
2cc
2cc
2cc
2cc
=11
2.cc
4b-
1a
=12
*M4/1
2b-
2g
1a
2r}
{2a
2.cc
4b-
=13
*M4/2
2a
2f
1g
=14
0f
=15
2a
2a
1b-
=16
1cc
2r
2cc
=17
2dd
2b-
1cc
=18
2r}
{2cc
2dd
2b-
=19
1cc
2r
2cc
=20
2dd
2dd
1cc
=21
2b-
2.cc
4b-
2a
=22
1g
1f
=23
0r}
=24
{1f
=25
*M3/1
0f
1f
=26
0a
1b-
=27
0cc
1cc}
=28
{0cc
1cc
=29
0dd
1ff
=30
1ee
0dd
=31
*M4/2
0cc
=32
0dd
=33
0ee
=34
1.ff}
{2f
=35
2.cc
4b-
2a
2g
=36
2.cc
4b-
2a
2g
=37
2.cc
4b-
2a
2g
=38
1cc
1ff
=39
2ee
4dd
4cc
1dd}
=40
{2cc
2cc
2a
2b-
=41
1cc
2b-
[2a
=42
2a]
4g
4f
1g
=43
0f}
=44
{2.ff
4ee
2dd
2cc
=45
2.ff
4ee
2dd
2cc
=46
1dd
1cc
=47
2cc
1cc
2cc
=48
1cc}
{1cc
=49
1dd
1ff
=50
1ee
1dd
=51
1cc
2b-
[2cc
=52
2cc]
4b-
4a
2g
2f
=53
1g
1f}
==
!!!AGN: Romanze, Ballade, Lied
!! Forster II. 1540 No. 7.
!!!ONB: ESAC (Essen Associative Code) Database: ALTDEU
!!!AMT: irregular
!!!AIN: vox
!!!EED: Helmut Schaffrath
!!!EEV: 1.0
*-
